src/assets/bold/lm-two-squares-bold.svg

<svg width="24" height="24" viewBox="0 0 24 24" fill="none" xmlns="http://www.w3.org/2000/svg" fill="currentColor">
<path d="M11 4.4C10.1163 4.4 9.4 5.11634 9.4 6V8H13C14.6569 8 16 9.34315 16 11V14.6H18C18.8837 14.6 19.6 13.8837 19.6 13V6C19.6 5.11634 18.8837 4.4 18 4.4H11ZM8 8V6C8 4.34315 9.34315 3 11 3H18C19.6569 3 21 4.34315 21 6V13C21 14.6569 19.6569 16 18 16H16V18C16 19.6569 14.6569 21 13 21H6C4.34315 21 3 19.6569 3 18V11C3 9.34315 4.34315 8 6 8H8ZM14.6 16H11C9.34315 16 8 14.6569 8 13V9.4H6C5.11634 9.4 4.4 10.1163 4.4 11V18C4.4 18.8837 5.11634 19.6 6 19.6H13C13.8837 19.6 14.6 18.8837 14.6 18V16ZM14.6 14.6V11C14.6 10.1163 13.8837 9.4 13 9.4H9.4V13C9.4 13.8837 10.1163 14.6 11 14.6H14.6Z" fill="black"/>
</svg>

<svg xmlns="http://www.w3.org/2000/svg" width="24" height="24" fill="currentColor" viewBox="0 0 24 24">
  <path d="M11 4.4A1.6 1.6 0 0 0 9.4 6v2H13a3 3 0 0 1 3 3v3.6h2a1.6 1.6 0 0 0 1.6-1.6V6A1.6 1.6 0 0 0 18 4.4h-7ZM8 8V6a3 3 0 0 1 3-3h7a3 3 0 0 1 3 3v7a3 3 0 0 1-3 3h-2v2a3 3 0 0 1-3 3H6a3 3 0 0 1-3-3v-7a3 3 0 0 1 3-3h2Zm6.6 8H11a3 3 0 0 1-3-3V9.4H6A1.6 1.6 0 0 0 4.4 11v7A1.6 1.6 0 0 0 6 19.6h7a1.6 1.6 0 0 0 1.6-1.6v-2Zm0-1.4V11A1.6 1.6 0 0 0 13 9.4H9.4V13a1.6 1.6 0 0 0 1.6 1.6h3.6Z"/>
</svg>
